X: 10020
T: CASEY'S WALTZ
C: Bob McQuillen 14 Nov 93
B: Bob's Note Book 10 #20
%R: waltz
Z: 2021 John Chambers <jc:trillian.mit.edu>
M: 3/4
L: 1/8
K: D
dB \
| "D"A2 de fg | f2 d2 dc | "G"B2 G3 B | "D"A4 AG | F2 DF AG | "Bm"F2 A2 df | "G6"a2 g3 f | "A7"e4 fg |
| "D"a2 ab ag | f2 d2 dc | "G"B2 d2 e2 | "F#"f4 dc | "G"Bd g2 ab | "D"af d2 dB | "A7"A2 d2 c2 | "D"d4 ||
|| FA \
| "D"d2 d2 cd | "A"ec A2 dc | "G"BA GB AG | "D"F2 A2 FA | d2 d2 cd | "A"ec A2 Bc | "E7"d2 c2 B2 | "A7"A4 FA |
| "D"d2 d2 cd | "A"ec A2 dc | "G"BA GB AG | "D"F2 D2 EF | "G"G2 GA Bc | "D"d2 A2 FA | "A7"G2 F2 E2 | "D"D4 |]
%%begintext align
%% Last August 4, guess
%% who came to Baltimore? Casey Rose Edelman, that's who! She'd
%% been 9 months in transit, but she got there just fine. Her folks are
%% Larry and Ashley, and naturally they're pretty thrilled with the
%% whole business - And all of us dance folks are really happy for the
%% Edelmans, so much so that this waltz for Casey showed up not long ago - It's
%% your very own tune, Casey Rose, with
%% much love from Bob.
%%endtext
